svg/pixelfed.svg

<svg xmlns="http://www.w3.org/2000/svg" width="24" height="24" viewBox="0 0 24 24">
	<path d="M12 3C16.9706 3 21 7.02944 21 12C21 16.9706 16.9706 21 12 21C7.02944 21 3 16.9706 3 12C3 7.02944 7.02944 3 12 3Z" fill="none" stroke="currentColor" stroke-linecap="round" stroke-width="2" stroke-dasharray="60" stroke-dashoffset="60">
		<animate attributeName="stroke-dashoffset" values="60;0" dur="0.5s" fill="freeze" />
	</path>
	<path d="M11.2061 14.1832H13.0406C14.7687 14.1832 16.1697 12.8194 16.1697 11.1371C16.1697 9.45472 14.7687 8.09091 13.0406 8.09091H10.3929C9.39592 8.09091 8.58769 8.87772 8.58769 9.8483V16.6883L11.2061 14.1832Z" fill="currentColor" fill-opacity="0">
		<animate attributeName="fill-opacity" values="0;1" begin="0.6s" dur="0.5s" fill="freeze" />
	</path>
</svg>

<svg xmlns="http://www.w3.org/2000/svg" width="24" height="24" viewBox="0 0 24 24">
	<g fill="currentColor">
		<path d="M11.21 14.18h1.83c1.73 0 3.13 -1.36 3.13 -3.05c0 -1.68 -1.4 -3.05 -3.13 -3.05h-2.65c-1 0 -1.81 0.79 -1.81 1.76v6.84l2.62 -2.51Z" fill-opacity="0">
			<animate attributeName="fill-opacity" values="0;1" begin="0.6s" dur="0.5s" fill="freeze" />
		</path>
	</g>
	<g fill="none" stroke="currentColor" stroke-width="2" stroke-linecap="round" stroke-linejoin="round">
		<path d="M12 3c4.97 0 9 4.03 9 9c0 4.97 -4.03 9 -9 9c-4.97 0 -9 -4.03 -9 -9c0 -4.97 4.03 -9 9 -9Z" stroke-dasharray="64" stroke-dashoffset="64">
			<animate attributeName="stroke-dashoffset" values="64;0" dur="0.6s" fill="freeze" />
		</path>
	</g>
</svg>
